public/avatar/shoe/66.svg

<svg xmlns:xlink="http://www.w3.org/1999/xlink" height="38.3" width="36.05" xmlns="http://www.w3.org/2000/svg"><use height="15.7" transform="translate(12.75 11.85)" width="19" xlink:href="#a"/><defs><g id="a" fill-rule="evenodd"><path d="M.3 12.4q-4.2.9-7.95-.7-3.5-1.55-3.4-3.8.1-2.3 1.55-5.1 1.45-2.9 3.35-4.1Q-2.5-3.55.4-2.85q7.55 1.8 7.55 8.05 0 5.55-7.65 7.2" fill="#2d3844" transform="translate(11.05 3)"/><path d="M5.35 8.5Q.7 12.3-4.75 11.4q-4.5-.7-5-3.25-.3-1.55 1.2-5.4.7-1.7 3.2-3.25 3.4-2.15 7.05-.9Q4.9-.3 6.4 2.9q1.65 3.5-1.05 5.6" fill="#5fd4f4" transform="translate(11.05 3)"/><path d="M4.2 3.65h.3l1.4.4-.15 4-2.35 2-.85.15q-1-.85-1.55-2.15-1.15-2.45.1-3.4Q2 4 3.15 3.8l1.05-.15" fill="#87e2fd" transform="translate(11.05 3)"/><path d="M-.4-2.05q4.55.55 6.3 4.25L4.05 2Q2 2.05 1.15 3.25-.2 5.2-5.3 4.6l-2.35-.35q-1.2-.4-.7-1.75Q-7.8 1.45-6-.1q2.8-2.25 5.6-1.95" fill="#fcfeff" transform="translate(11.05 3)"/><path d="M1.35 8.75q1.4.75 1.65 1.4l-1.15.55q-1-1.75-2.4-2.3l-2.3-.9 4.2 1.25" fill="#3c7281" transform="translate(11.05 3)"/><path d="m2.65 2.3 3.25-.1 1.05 3.65q0 1.8-2.9 3.65.9-1.7.9-3.95 0-.9-1.1-2.15l-1.2-1.1" fill="#529cb2" transform="translate(11.05 3)"/><path d="M2.95-.95q1.5.7 2.95 3.15l-1.55-.05-1.7.15q-1-.95-2.6-1.25L-4.3.9Q-6.4-.8-2.55-1.95q2.05-.6 5.5 1" fill="#c3c7d8" transform="translate(11.05 3)"/><path d="M-4.45 6.8q.9.35.4 2.1t-2.35.95q-1.55-.65-.5-2.2 1-1.6 2.45-.85" fill="#529cb2" transform="translate(11.05 3)"/><path d="M-4.95 6.9q1.1.35.8 1.6-.4 1.2-1.4.95-1.05-.2-.7-1.6.35-1.3 1.3-.95" fill="#fdfeff" transform="translate(11.05 3)"/></g></defs></svg>

<?xml version="1.0" encoding="UTF-8" standalone="no"?>
<svg xmlns:xlink="http://www.w3.org/1999/xlink" height="38.3px" width="36.05px" xmlns="http://www.w3.org/2000/svg">
  <g transform="matrix(1.0, 0.0, 0.0, 1.0, 23.8, 14.85)">
    <use height="15.7" transform="matrix(1.0, 0.0, 0.0, 1.0, -11.05, -3.0)" width="19.0" xlink:href="#shape0"/>
  </g>
  <defs>
    <g id="shape0" transform="matrix(1.0, 0.0, 0.0, 1.0, 11.05, 3.0)">
      <path d="M0.3 12.4 Q-3.9 13.3 -7.65 11.7 -11.15 10.15 -11.05 7.9 -10.95 5.6 -9.5 2.8 -8.05 -0.1 -6.15 -1.3 -2.5 -3.55 0.4 -2.85 7.95 -1.05 7.95 5.2 7.95 10.75 0.3 12.4" fill="#2d3844" fill-rule="evenodd" stroke="none"/>
      <path d="M5.35 8.5 Q0.7 12.3 -4.75 11.4 -9.25 10.7 -9.75 8.15 -10.05 6.6 -8.55 2.75 -7.85 1.05 -5.35 -0.5 -1.95 -2.65 1.7 -1.4 4.9 -0.3 6.4 2.9 8.05 6.4 5.35 8.5" fill="#5fd4f4" fill-rule="evenodd" stroke="none"/>
      <path d="M4.2 3.65 L4.5 3.65 5.9 4.05 5.75 8.05 3.4 10.05 2.55 10.2 Q1.55 9.35 1.0 8.05 -0.15 5.6 1.1 4.65 2.0 4.0 3.15 3.8 L4.2 3.65" fill="#87e2fd" fill-rule="evenodd" stroke="none"/>
      <path d="M-0.4 -2.05 Q4.15 -1.5 5.9 2.2 L4.05 2.0 Q2.0 2.05 1.15 3.25 -0.2 5.2 -5.3 4.6 L-7.65 4.25 Q-8.85 3.85 -8.35 2.5 -7.8 1.45 -6.0 -0.1 -3.2 -2.35 -0.4 -2.05" fill="#fcfeff" fill-rule="evenodd" stroke="none"/>
      <path d="M1.35 8.75 Q2.75 9.5 3.0 10.15 L1.85 10.7 Q0.85 8.95 -0.55 8.4 L-2.85 7.5 1.35 8.75" fill="#3c7281" fill-rule="evenodd" stroke="none"/>
      <path d="M2.65 2.3 L5.9 2.2 6.95 5.85 Q6.95 7.65 4.05 9.5 4.95 7.8 4.95 5.55 4.95 4.65 3.85 3.4 L2.65 2.3" fill="#529cb2" fill-rule="evenodd" stroke="none"/>
      <path d="M2.95 -0.95 Q4.45 -0.25 5.9 2.2 L4.35 2.15 2.65 2.3 Q1.65 1.35 0.05 1.05 L-4.3 0.9 Q-6.4 -0.8 -2.55 -1.95 -0.5 -2.55 2.95 -0.95" fill="#c3c7d8" fill-rule="evenodd" stroke="none"/>
      <path d="M-4.45 6.8 Q-3.55 7.15 -4.05 8.9 -4.55 10.65 -6.4 9.85 -7.95 9.2 -6.9 7.65 -5.9 6.05 -4.45 6.8" fill="#529cb2" fill-rule="evenodd" stroke="none"/>
      <path d="M-4.95 6.9 Q-3.85 7.25 -4.15 8.5 -4.55 9.7 -5.55 9.45 -6.6 9.25 -6.25 7.85 -5.9 6.55 -4.95 6.9" fill="#fdfeff" fill-rule="evenodd" stroke="none"/>
    </g>
  </defs>
</svg>
